16/panel/qomp-play-panel.svg

<svg xmlns="http://www.w3.org/2000/svg" width="16" height="16" version="1.1">
 <defs>
  <style id="current-color-scheme" type="text/css">
   .ColorScheme-Text { color:#dfdfdf; } .ColorScheme-Highlight { color:#4285f4; } .ColorScheme-NeutralText { color:#ff9800; } .ColorScheme-PositiveText { color:#4caf50; } .ColorScheme-NegativeText { color:#f44336; }
  </style>
 </defs>
 <path style="fill:currentColor" class="ColorScheme-Text" d="M 8 1 A 7 7 0 0 0 1 8 A 7 7 0 0 0 8 15 A 7 7 0 0 0 11 14.314453 L 11 13.505859 L 11 11.515625 C 11.000519 10.734311 11.624001 9.9767765 12.492188 10 C 12.754418 10.006996 13.008985 10.088728 13.222656 10.226562 L 13.224609 10.226562 L 14.339844 10.949219 A 7 7 0 0 0 15 8 A 7 7 0 0 0 8 1 z M 10.5 3.9980469 L 11 3.9980469 L 11 9.4980469 C 11 10.326447 10.3284 10.998047 9.5 10.998047 C 8.6716 10.998047 8 10.326447 8 9.4980469 C 8 8.6696469 8.6716 7.9980469 9.5 7.9980469 C 9.68 7.9980469 9.84 8.03375 10 8.09375 L 10 6 L 7 6 L 7 9.5 C 7 10.3284 6.3284 11 5.5 11 C 4.6716 11 4 10.3284 4 9.5 C 4 8.6716 4.6716 8 5.5 8 C 5.68 8 5.84 8.0357031 6 8.0957031 L 6 4.0019531 L 10.5 3.9980469 z M 12.472656 11 A 0.46096882 0.51482239 0 0 0 12 11.513672 L 12 13.5 L 12 15.486328 A 0.46096882 0.51482239 0 0 0 12.691406 15.931641 L 14.230469 14.939453 L 15.769531 13.945312 A 0.46096882 0.51482239 0 0 0 15.769531 13.054688 L 14.230469 12.060547 L 12.691406 11.068359 A 0.46096882 0.51482239 0 0 0 12.472656 11 z"/>
</svg>

<svg xmlns="http://www.w3.org/2000/svg" width="16" height="16" version="1.1">
 <defs>
  <style id="current-color-scheme" type="text/css">
   .ColorScheme-Text { color:#dfdfdf; } .ColorScheme-Highlight { color:#4285f4; }
  </style>
 </defs>
 <path style="fill:currentColor" class="ColorScheme-Highlight" d="M 8,1 A 7,7 0 0 0 1,8 7,7 0 0 0 8,15 7,7 0 0 0 15,8 7,7 0 0 0 8,1 Z m 2.5,2.9980469 0.5,0 0,5.5000001 c 0,0.8284 -0.6716,1.5 -1.5,1.5 -0.8284,0 -1.5,-0.6716 -1.5,-1.5 0,-0.8284 0.6716,-1.5 1.5,-1.5 0.18,0 0.34,0.0357 0.5,0.0957 L 10,6 7,6 7,9.5 C 7,10.3284 6.3284,11 5.5,11 4.6716,11 4,10.3284 4,9.5 4,8.6716 4.6716,8 5.5,8 5.68,8 5.84,8.0357 6,8.0957 l 0,-4.0937499 4.5,-0.00391 z"/>
</svg>
